icons/chemical_burn_fill.svg

<svg width="48" height="48" viewBox="0 0 48 48" fill="none" xmlns="http://www.w3.org/2000/svg">
<path fill-rule="evenodd" clip-rule="evenodd" d="M11.9115 18C11.9115 19.8246 11.1822 21.1798 10.4094 22.757C9.44662 24.7217 10.3423 26.4224 11.4417 28C11.4417 26.1895 11.695 25.1674 12.8858 23.8067C13.6182 25.2983 13.6846 26.3932 13.4532 28C16.4866 26.3336 16.3245 23.6012 15.4404 20.5C15.2699 21.2143 14.9523 21.8636 14.746 22.3182C14.335 20.5078 13.1632 19.1816 11.9115 18Z" fill="black"/>
<path fill-rule="evenodd" clip-rule="evenodd" d="M7.82857 25.6108C6.66036 27.2235 6 29.1894 6 31.2522V32.391C6 37.6979 10.2981 42 15.6 42H29.2C30.0837 42 30.8 41.283 30.8 40.3985C30.8 39.514 30.0837 38.797 29.2 38.797H21.1111V37.1955H34C34.8837 37.1955 35.6 36.4785 35.6 35.594C35.6 34.7095 34.8837 33.9925 34 33.9925H22.8V32.391H36.4C37.2837 32.391 38 31.674 38 30.7895C38 29.905 37.2837 29.188 36.4 29.188H22.8V27.5865H34C34.8837 27.5865 35.6 26.8695 35.6 25.985C35.6 25.1005 34.8837 24.3835 34 24.3835H20.6151C19.8259 24.3835 19.5134 23.361 20.1675 22.9191L23.3963 20.7376C24.3397 20.1002 24.5802 18.8138 23.931 17.8781C23.3377 17.0229 22.1969 16.751 21.2821 17.2466L18.8 18.5916V26.8214C18.8 29.7801 16.344 32.1786 13.3143 32.1786C10.2846 32.1786 7.82857 29.7801 7.82857 26.8214V25.6108Z" fill="black"/>
<path fill-rule="evenodd" clip-rule="evenodd" d="M19 13L38 13C39.1046 13 40 12.1046 40 11C40 9.89543 39.1046 9 38 9L19 9V7L38 7C40.2091 7 42 8.79086 42 11C42 13.2091 40.2091 15 38 15L19 15V13Z" fill="black"/>
<path fill-rule="evenodd" clip-rule="evenodd" d="M16 14H17V8H16V14ZM14 15C14 15.5523 14.4477 16 15 16H18C18.5523 16 19 15.5523 19 15V7C19 6.44772 18.5523 6 18 6L15 6C14.4477 6 14 6.44772 14 7V15Z" fill="black"/>
<path d="M31 8L16 14H38.2082C38.7245 14 39.2292 13.8472 39.6588 13.5608C40.2001 13.1999 40.5874 12.6503 40.7452 12.0192L40.8036 11.7854C40.9326 11.2697 40.9326 10.7303 40.8036 10.2146L40.7452 9.98081C40.5874 9.3497 40.2001 8.80005 39.6588 8.4392C39.2292 8.15282 38.7245 8 38.2082 8H31Z" fill="black"/>
</svg>

<svg
  xmlns="http://www.w3.org/2000/svg"
  width="24"
  height="24"
  viewBox="0 0 24 24"
  fill="none"
  stroke="currentColor"
  stroke-width="2"
  stroke-linecap="round"
  stroke-linejoin="round"
>
  <path
    fill-rule="evenodd"
    d="M11.912 18c0 1.825-.73 3.18-1.503 4.757-.962 1.965-.067 3.665 1.033 5.243 0-1.81.253-2.833 1.444-4.193.732 1.491.799 2.586.567 4.193 3.034-1.666 2.872-4.399 1.987-7.5-.17.714-.488 1.364-.694 1.818-.411-1.81-1.583-3.136-2.835-4.318"
    clip-rule="evenodd"
  />
  <path
    fill-rule="evenodd"
    d="M7.829 25.61A9.6 9.6 0 0 0 6 31.253v1.139C6 37.698 10.298 42 15.6 42h13.6a1.6 1.6 0 0 0 0-3.203h-8.089v-1.601H34a1.6 1.6 0 0 0 0-3.203H22.8V32.39h13.6a1.6 1.6 0 0 0 0-3.203H22.8v-1.601H34a1.6 1.6 0 0 0 0-3.203H20.615c-.79 0-1.102-1.023-.447-1.465l3.228-2.181a2.045 2.045 0 0 0 .535-2.86 2.04 2.04 0 0 0-2.649-.631L18.8 18.592v8.23c0 2.958-2.456 5.357-5.486 5.357S7.83 29.78 7.83 26.82z"
    clip-rule="evenodd"
  />
  <path
    fill-rule="evenodd"
    d="M19 13h19a2 2 0 1 0 0-4H19V7h19a4 4 0 0 1 0 8H19z"
    clip-rule="evenodd"
  />
  <path
    fill-rule="evenodd"
    d="M16 14h1V8h-1zm-2 1a1 1 0 0 0 1 1h3a1 1 0 0 0 1-1V7a1 1 0 0 0-1-1h-3a1 1 0 0 0-1 1z"
    clip-rule="evenodd"
  />
  <path d="m31 8-15 6h22.208a2.615 2.615 0 0 0 2.537-1.98l.059-.235a3.24 3.24 0 0 0 0-1.57l-.059-.234A2.615 2.615 0 0 0 38.208 8z" />
</svg>
